X: 278
P: Longways for as many as will
M: 6/4
L: 1/4
K: C
f |\
(ec)g d2G | c>dc dA/B/ c/A/ | B3 d>cB |\
c>dc A>GF | G>AG GD/E/ F/D/ | E3 C2 |]
E>DC G>FE | F>EF A>GF | A3 d>cB |\
c>Bc e>dc | f>ed (e/f/g)G | c3- c2 |]

